svgs/thin/landmark-flag.svg

<svg xmlns="http://www.w3.org/2000/svg" viewBox="0 0 512 512"><!--! Font Awesome Pro 6.6.0 by @fontawesome - https://fontawesome.com License - https://fontawesome.com/license (Commercial License) Copyright 2024 Fonticons, Inc. --><path d="M352 16l0 64-96 0 0-40 0-24 96 0zM256 96l96 0c8.8 0 16-7.2 16-16l0-64c0-8.8-7.2-16-16-16L256 0c-8.8 0-16 7.2-16 16l0 40 0 24 0 16 0 48L40 144c-4.4 0-8 3.6-8 8s3.6 8 8 8l432 0c4.4 0 8-3.6 8-8s-3.6-8-8-8l-216 0 0-48zM80 200c0-4.4-3.6-8-8-8s-8 3.6-8 8l0 176c0 4.4 3.6 8 8 8l368 0c4.4 0 8-3.6 8-8l0-176c0-4.4-3.6-8-8-8s-8 3.6-8 8l0 168-104 0 0-168c0-4.4-3.6-8-8-8s-8 3.6-8 8l0 168-112 0 0-168c0-4.4-3.6-8-8-8s-8 3.6-8 8l0 168L80 368l0-168zM40 432c-4.4 0-8 3.6-8 8s3.6 8 8 8l432 0c4.4 0 8-3.6 8-8s-3.6-8-8-8L40 432zM8 496c-4.4 0-8 3.6-8 8s3.6 8 8 8l496 0c4.4 0 8-3.6 8-8s-3.6-8-8-8L8 496z"/></svg>

<svg xmlns="http://www.w3.org/2000/svg" viewBox="0 0 512 512"><!--! Font Awesome Pro 6.4.2 by @fontawesome - https://fontawesome.com License - https://fontawesome.com/license (Commercial License) Copyright 2023 Fonticons, Inc. --><path d="M352 16V80H256V40 16h96zM256 96h96c8.8 0 16-7.2 16-16V16c0-8.8-7.2-16-16-16H256c-8.8 0-16 7.2-16 16V56 80 96v48H40c-4.4 0-8 3.6-8 8s3.6 8 8 8H472c4.4 0 8-3.6 8-8s-3.6-8-8-8H256V96zM80 200c0-4.4-3.6-8-8-8s-8 3.6-8 8V376c0 4.4 3.6 8 8 8H440c4.4 0 8-3.6 8-8V200c0-4.4-3.6-8-8-8s-8 3.6-8 8V368H328V200c0-4.4-3.6-8-8-8s-8 3.6-8 8V368H200V200c0-4.4-3.6-8-8-8s-8 3.6-8 8V368H80V200zM40 432c-4.4 0-8 3.6-8 8s3.6 8 8 8H472c4.4 0 8-3.6 8-8s-3.6-8-8-8H40zM8 496c-4.4 0-8 3.6-8 8s3.6 8 8 8H504c4.4 0 8-3.6 8-8s-3.6-8-8-8H8z"/></svg>
